svgs/wallfactory.svg

<svg xmlns="http://www.w3.org/2000/svg" viewBox="0 0 192 192"><path d="M53.331 163.811c-18.34-3.821-31.086-21.405-35.851-49.455-1.99-11.718-1.97-37.884.04-53.205 1.316-10.029 5.504-32.771 6.16-33.451.134-.139 2.994.32 6.354 1.021 24.382 5.084 35.092 24.386 35.157 63.362l.015 9.092 4.276-6.088c11.591-16.505 24.771-22.135 36.597-15.633 5.553 3.053 12.165 9.492 16.662 16.227l3.304 4.948.984-16.245c1.459-24.102 4.636-34.545 13.441-44.179 2.774-3.034 6.345-5.745 9.765-7.411 6.655-3.243 17.186-5.816 18.054-4.411.329.531 1.255 4.387 2.059 8.568 10.691 55.635 6.127 96.561-12.935 115.983-13.032 13.279-30.082 15.081-44.528 4.706-3.398-2.44-3.908-3.276-4.816-7.891-4.066-20.665-17.528-23.336-23.211-4.604-.708 2.333-1.291 5.305-1.296 6.605-.007 1.774-1.009 3.125-4.026 5.429-7.222 5.514-18.217 8.297-26.205 6.632Z"/></svg>

<svg
    xmlns="http://www.w3.org/2000/svg"
    viewBox="0 0 192 192"
    id="vector">
    <path
        id="path"
        d="M 53.331 163.811 C 34.991 159.99 22.245 142.406 17.48 114.356 C 15.49 102.638 15.51 76.472 17.52 61.151 C 18.836 51.122 23.024 28.38 23.68 27.7 C 23.814 27.561 26.674 28.02 30.034 28.721 C 54.416 33.805 65.126 53.107 65.191 92.083 L 65.206 101.175 L 69.482 95.087 C 81.073 78.582 94.253 72.952 106.079 79.454 C 111.632 82.507 118.244 88.946 122.741 95.681 L 126.045 100.629 L 127.029 84.384 C 128.488 60.282 131.665 49.839 140.47 40.205 C 143.244 37.171 146.815 34.46 150.235 32.794 C 156.89 29.551 167.421 26.978 168.289 28.383 C 168.618 28.914 169.544 32.77 170.348 36.951 C 181.039 92.586 176.475 133.512 157.413 152.934 C 144.381 166.213 127.331 168.015 112.885 157.64 C 109.487 155.2 108.977 154.364 108.069 149.749 C 104.003 129.084 90.541 126.413 84.858 145.145 C 84.15 147.478 83.567 150.45 83.562 151.75 C 83.555 153.524 82.553 154.875 79.536 157.179 C 72.314 162.693 61.319 165.476 53.331 163.811 Z"
        fill="#000000"
        stroke-width="12"/>
</svg>
